images/overview-icon.svg

<svg width="16" height="16" viewBox="0 0 16 16" fill="none" xmlns="http://www.w3.org/2000/svg">
<path opacity="0.4" d="M15.5232 8.94116H8.54412L13.1921 13.5891C13.3697 13.7667 13.6621 13.7812 13.8447 13.6091C14.9829 12.5367 15.7659 11.0912 15.9956 9.46616C16.035 9.18793 15.8041 8.94116 15.5232 8.94116ZM15.0576 7.03528C14.8153 3.52176 12.0076 0.714119 8.49412 0.471767C8.22589 0.453237 8 0.679413 8 0.948236V7.5294H14.5815C14.8503 7.5294 15.0762 7.30352 15.0576 7.03528ZM6.58824 8.94116V1.96206C6.58824 1.68118 6.34147 1.45029 6.06353 1.48971C2.55853 1.985 -0.120585 5.04705 0.00412089 8.71675C0.132356 12.4856 3.37736 15.5761 7.14794 15.5288C8.6303 15.5103 10 15.0326 11.1262 14.2338C11.3585 14.0691 11.3738 13.727 11.1724 13.5256L6.58824 8.94116Z" fill="#9FA2B4"/>
</svg>

<svg xmlns="http://www.w3.org/2000/svg" width="16" height="16" fill="none"><path fill="#9FA2B4" d="M15.523 8.941H8.544l4.648 4.648c.178.178.47.192.653.02a7.044 7.044 0 0 0 2.15-4.143.471.471 0 0 0-.472-.525Zm-.465-1.906A7.076 7.076 0 0 0 8.494.472.473.473 0 0 0 8 .948V7.53h6.582a.473.473 0 0 0 .476-.494Zm-8.47 1.906V1.962a.471.471 0 0 0-.524-.472 7.054 7.054 0 0 0-6.06 7.227c.128 3.769 3.373 6.86 7.144 6.812a7.004 7.004 0 0 0 3.978-1.295c.232-.165.248-.507.046-.708L6.588 8.94Z" opacity=".4"/></svg>
